!!!COM: Johannes Brahms
!!!CNT: Deutscher
!!!TXO: Deutsche
!!!OTL: Die Schnur, die an Perle
!!!OPS: Op. 57
!!!ONM: No. 7
!!!LYR: Daumer
!!!ONB: Original key: B Major
!!!ENC: Ayako Kataoka        
!!!EED: Leigh VanHandel
!!!YOR: C.F. Peters, Brahms Lieder fu2r eine Singstimme mit Klavierbegleitung, Band III, ausgabe fu2r tiefere Stimme
!!!ODT: 1871/
!!NB: Vocal melody and text only encoded.
**kern	**silbe
*clefG2	*
*k[b-e-a-d-]	*
*M3/4	*
*MM[adagio]	*
!! tempo indication: etwas langsam
=2	=2
4r	.
4r	.
{4cc	{Die
=3	=3
4.b-	Schnur,
8a-	die
8g	Perl
8cc	an
=4	=4
(4.b-	Per-
8a-)	|
8g}	-le}
{8ee-	{um
=5	=5
(4.dd-	dei-
8b-)	|
(8cc	-nen
8a-)	|
=6	=6
(4.dd-	Hals
8b-)	|
(8cc	ge-
8a-)	|
=7	=7
4cc	-reih-
4b-}	-te,}
4r	.
=8	=8
4r	.
4r	.
{4e-	{wie
=9	=9
(4.a-	wiegt
8en)	|
(8f	sie
8a-)	|
=10	=10
(4.a-	sich
8en)	|
(8f	so
8a-)	|
=11	=11
2b-	fro2h-
4g}	-lich}
=12	=12
4r	.
4r	.
{4g	{auf
=13	=13
(4ddn	dei-
4cc)	|
4bn	-ner
=14	=14
(4een	scho2-
4ddn)	|
4cc	-nen
=15	=15
4bn}	Brust,}
4r	.
4r	.
=16	=16
4r	.
4r	.
{4cc	{auf
=17	=17
2ee-	dei-
4b-	-ner
=18	=18
(4.ddn	scho2-
8b-)	|
(8a-	-nen
8f)	|
=19	=19
4e-}	Brust!}
4r	.
4r	.
=20	=20
4r	.
4r	.
{4b-	{Mit
=21	=2
4.dd-	Seel
8cc	und
8dd-	Sinn
8b-	be-
=22	=22
4a-	-ga-
4g}	-bet,}
8r	.
{8b-	{mit
=23	=23
4.ee-	Se-
8f	-lig-
8g-	-keit
8ee-	be-
=24	=24
4.dd-	-rau-
8cc	-schet
4cc}	sie,}
=25	=25
{2dd-	{die-
4ddn	-se
=26	=26
(4.ee-	Go2t-
8cc)	|
(8cc	-ter-
8b-)	|
=27	=27
4a-}	-lust.}
4r	.
4r	.
=30	=30
4r	.
4r	.
8r	.
{8cc	{Was
=31	=31
4.b-	mu2s-
8a-	-sen
8dd-	wir
8cc	erst
=32	=32
(4.b-	fu2h-
8a-)	|
8g}	-len,}
{8ee-	{in
=33	=33
(4.dd-	wel-
8b-)	|
(8cc	-chen
8a-)	|
=34	=34
(4.dd-	Her-
8b-)	|
(8cc	-zen
8a-)	|
=35	=35
4cc	schla-
4b-}	-gen}
{4e-	{so
=36	=36
(4.a-	hei-
8en)	|
(8f	-sse
8a-)	|
=37	=37
(4.cc	Men-
8g)	|
(8a-	-schen-
8cc)	|
=38	=38
(2ee-	-her
4ddn)	|
=39	=39
4cc}	-zen,}
4r	.
{4e-	{wo-
=40	=40
4.dd-	-fern
8cc	es
8dd-	uns
8b-	ge-
=41	=41
4a-	-stat-
4g}	-tet,}
8r	.
{8g	{uns
=42	=42
4.b-	trau-
8an	-lich
8b-	an-
8g-	-zu-
=43	=43
4f	-schmie-
4e-}	-gen}
4r	.
=44	=44
{4a-	{an
4b-	ei-
4cc-	-ne
=45	=45
(4.ccn	sol-
8b-)	|
(8a-	-che
8g)	|
=46	=46
4a-}	Brust,}
4r	.
4r	.
=47	=47
4r	.
4r	.
{4e-	{an
=48	=48
2e-	ei-
4e-	-ne
=49	=49
2e-	sol-
4e-	-che
=50	=50
([2.b-	Brust.
=51	=51
4b-]	|
4a-)}	|}
*-	*-
